!!!COM:	Ockeghem, Johannes
!!!CDT:	~1425-1497/02/06
!!!OPR:	Missa Ecce ancilla domini
!!!ONM:	4
!!!OTL:	Sanctus
!!!AGN:	Mass; Sanctus
!!!SCT:	Ock1006d
!!!SCA:	Ock1006d
!!!voices:	4
**kern	**text	**kern	**text	**kern	**text	**kern	**text
*staff4	*staff4	*staff3	*staff3	*staff2	*staff2	*staff1	*staff1
*Ivox	*	*Ivox	*	*Ivox	*	*Ivox	*
*I"Bassus	*	*I"Tenor	*	*I"Contratenor	*	*I"Discantus	*
*I'B	*	*I'T	*	*I'Ct	*	*I'D	*
*>[A,B,C,D]	*>[A,B,C,D]	*>[A,B,C,D]	*>[A,B,C,D]	*>[A,B,C,D]	*>[A,B,C,D]	*>[A,B,C,D]	*>[A,B,C,D]
*>A	*>A	*>A	*>A	*>A	*>A	*>A	*>A
*clefF4	*	*clefGv2	*	*clefGv2	*	*clefG2	*
*k[]	*	*k[]	*	*k[]	*	*k[]	*
*M3/1	*	*M3/1	*	*M3/1	*	*M3/1	*
*met(O)	*	*met(O)	*	*met(O)	*	*met(O)	*
!!section: Sanctus
!!!OMD: Sanctus
=1-	=1-	=1-	=1-	=1-	=1-	=1-	=1-
0.r	.	0.r	.	1.G	Sanc-	0.g	Sanc-
.	.	.	.	2A/	.	.	.
.	.	.	.	1B	.	.	.
=2	=2	=2	=2	=2	=2	=2	=2
0.r	.	0.r	.	0.c	-tus,	1.g	-tus,
.	.	.	.	.	.	2.a/	.
.	.	.	.	.	.	4g/	.
.	.	.	.	.	.	[2e/	.
=3	=3	=3	=3	=3	=3	=3	=3
0.r	.	0.r	.	2.c\	sanc-	2e/]	.
.	.	.	.	.	.	4d/	.
.	.	.	.	4A/	.	4c/	.
.	.	.	.	2G/	.	2B/	.
.	.	.	.	1c	.	2c/	.
.	.	.	.	.	.	1d	.
.	.	.	.	2B\	.	.	.
=4	=4	=4	=4	=4	=4	=4	=4
0.r	.	0.r	.	1c	-tus,	2r	.
.	.	.	.	.	.	2c/	sanc-
.	.	.	.	1r	.	2e/	.
.	.	.	.	.	.	2f/	.
.	.	.	.	1B	sanc-	1g	.
=5	=5	=5	=5	=5	=5	=5	=5
0.r	.	0.r	.	2A/	.	1a	.
.	.	.	.	1c	.	.	.
.	.	.	.	.	.	1g	.
.	.	.	.	1G	.	.	.
.	.	.	.	.	.	2b\	.
.	.	.	.	2c\	.	[2a/	.
=6	=6	=6	=6	=6	=6	=6	=6
0.r	.	0.r	.	2d\	.	2a/]	.
.	.	.	.	1e	.	2g/	.
.	.	.	.	.	.	2cc\	.
.	.	.	.	2c\	.	1cc	.
.	.	.	.	1d	.	.	.
.	.	.	.	.	.	2b\	.
=7	=7	=7	=7	=7	=7	=7	=7
0.r	.	0.r	.	1c	-tus,	1cc	-tus,
.	.	.	.	2r	.	2b\	.
.	.	.	.	1c	sanc-	2g/	.
.	.	.	.	.	.	2.a/	.
.	.	.	.	2d\	.	.	.
.	.	.	.	.	.	4g/	.
=8	=8	=8	=8	=8	=8	=8	=8
0.r	.	0.r	.	2.e\	.	1e	.
.	.	.	.	4c\	.	.	.
.	.	.	.	2d\	.	2r	.
.	.	.	.	2c\	.	2e/	sanc-
.	.	.	.	2A/	.	2f/	.
.	.	.	.	2B\	.	[2g/	.
=9	=9	=9	=9	=9	=9	=9	=9
0.r	.	0.r	.	1c	.	2g/]	.
.	.	.	.	.	.	2e/	.
.	.	.	.	2B\	.	1d	.
.	.	.	.	1G	.	.	.
.	.	.	.	.	.	1g	.
.	.	.	.	[2c\	.	.	.
=10	=10	=10	=10	=10	=10	=10	=10
0.r	.	0.r	.	2c\]	.	1a	.
.	.	.	.	1d	.	.	.
.	.	.	.	.	.	2.b\	.
.	.	.	.	1e	.	.	.
.	.	.	.	.	.	4g/	.
.	.	.	.	.	.	2g/	.
.	.	.	.	[2c\	.	2a/	.
=11	=11	=11	=11	=11	=11	=11	=11
0.r	.	0.r	.	2c\]	.	1cc	.
.	.	.	.	1d	.	.	.
.	.	.	.	.	.	2b\	.
.	.	.	.	2B\	.	2g/	.
.	.	.	.	2c\	.	2a/	.
.	.	.	.	2B\	.	[2b\	.
=12	=12	=12	=12	=12	=12	=12	=12
0.r	.	0.r	.	1G	.	2b\]	.
.	.	.	.	.	.	4a/	.
.	.	.	.	.	.	4g/	.
.	.	.	.	2.d\	.	2f/	.
.	.	.	.	.	.	2g/	.
.	.	.	.	4B\	.	.	.
.	.	.	.	2c\	.	2e/	.
.	.	.	.	4B\	.	[2d/	.
.	.	.	.	[4B\	.	.	.
=13	=13	=13	=13	=13	=13	=13	=13
0.r	.	0.r	.	4B\]	.	2d/]	.
.	.	.	.	8A/L	.	.	.
.	.	.	.	8G/J	.	.	.
.	.	.	.	2F/	.	1a	.
.	.	.	.	1G	.	.	.
.	.	.	.	.	.	1g	.
.	.	.	.	1A	.	.	.
.	.	.	.	.	.	2f#i/	.
=14	=14	=14	=14	=14	=14	=14	=14
0G	Sanc-	0d	Sanc-	0.G	-tus,	0g	-tus,
2.C/	.	1c	.	.	.	1r	.
4D\	.	.	.	.	.	.	.
=15	=15	=15	=15	=15	=15	=15	=15
4E\	.	1B	.	2r	.	0g	sanc-
4F\	.	.	.	.	.	.	.
1G	.	.	.	1G	sanc-	.	.
.	.	1d	.	.	.	.	.
2E\	.	.	.	2A/	.	.	.
1D	-tus	1d	-tus	1B	.	1f	.
=16	=16	=16	=16	=16	=16	=16	=16
2.C/	do-	0.e	do-	1.c	-tus	1e	.
4D\	.	.	.	.	.	.	.
2E\	.	.	.	.	.	0g	-tus
1E	.	.	.	2B\	.	.	.
.	.	.	.	1c	.	.	.
2C/	.	.	.	.	.	.	.
=17	=17	=17	=17	=17	=17	=17	=17
2.BB/	.	[0.d	-mi-	2.d\	do-	2r	.
.	.	.	.	.	.	2g/	do-
4C/	.	.	.	4B\	.	.	.
2D\	.	.	.	2A/	.	2f/	.
1GG	.	.	.	2B\	.	2g/	.
.	.	.	.	2G/	.	1b-	.
[2D\	.	.	.	[2F/	.	.	.
=18	=18	=18	=18	=18	=18	=18	=18
4D\]	.	0d]	.	2F/]	.	1.a	.
4E\	.	.	.	.	.	.	.
1F	.	.	.	2D/	.	.	.
.	.	.	.	2A/	.	.	.
2G\	-mi-	.	.	2B\	-mi-	1g	-mi-
1E	-nus	1c	-nus	1G	-nus	.	.
.	.	.	.	.	.	2e/	-nus
=19	=19	=19	=19	=19	=19	=19	=19
2.D\	de-	0.d	de-	1A	de-	2.f/	de-
4E\	.	.	.	.	.	4g/	.
2F\	.	.	.	1.D	.	2a/	.
2.BB-i/	.	.	.	.	.	1b-i	.
4C/	.	.	.	.	.	.	.
[2D\	.	.	.	[2F/	.	2a/	.
=20	=20	=20	=20	=20	=20	=20	=20
4D\]	.	0.d	.	4F/]	.	2.f/	-us,
2BB-i/	.	.	.	4G/	.	.	.
.	.	.	.	2B-i\	.	.	.
8AA/L	.	.	.	.	.	4g/	.
8GG/J	.	.	.	.	.	.	.
2FF/	.	.	.	2A/	.	2a/	.
1GG	.	.	.	2G/	.	2d/	.
.	.	.	.	1A	.	2r	.
2FF/	.	.	.	.	.	2f/	de-
=21	=21	=21	=21	=21	=21	=21	=21
0.GG	-us,	0.G	-us	1B-i	-us,	2e/	.
.	.	.	.	.	.	1d	.
.	.	.	.	2G/	.	.	.
.	.	.	.	2D/	.	2.g/	.
.	.	.	.	2r	.	.	.
.	.	.	.	.	.	4f/	.
.	.	.	.	[2B-i\	de-	2e/	.
=22	=22	=22	=22	=22	=22	=22	=22
2BB-i/	de-	0.r	.	2B-\]	.	2d/	.
2AA/	.	.	.	1c	.	1e	.
2C/	.	.	.	.	.	.	.
2D\	.	.	.	1A	.	1d	.
1E	.	.	.	.	.	.	.
.	.	.	.	2G/	.	2c#i/	.
=23	=23	=23	=23	=23	=23	=23	=23
[0.D	-us	0.F	sa-	1.A	.	0.d	-us
.	.	.	.	1B-i	.	.	.
.	.	.	.	4A/	.	.	.
.	.	.	.	4G/	.	.	.
=24	=24	=24	=24	=24	=24	=24	=24
1D]	.	0.A	.	0F	-us	1r	.
0D	sa-	.	.	.	.	0d	sa-
.	.	.	.	1A	sa-	.	.
=25	=25	=25	=25	=25	=25	=25	=25
0AA	.	0.c	.	0A	-ba-	1.e	.
.	.	.	.	.	.	2c/	.
1C	.	.	.	1G	.	2.e/	.
.	.	.	.	.	.	4f/	.
=26	=26	=26	=26	=26	=26	=26	=26
2.C/	-ba-	0.c	.	1E	-oth,	1.g	.
4D\	.	.	.	.	.	.	.
2E\	.	.	.	1r	.	.	.
2F\	.	.	.	.	.	2a/	.
2E\	-oth,	.	.	[1G	sa-	2g/	.
2C/	.	.	.	.	.	2e/	.
=27	=27	=27	=27	=27	=27	=27	=27
2r	.	0.B	.	2G/]	.	1d	.
2.G\	sa-	.	.	2.Bni\	.	.	.
.	.	.	.	.	.	1.g	.
4A\	.	.	.	4c\	.	.	.
2B\	-ba-	.	.	2d\	.	.	.
2c\	.	.	.	1G	.	.	.
2d\	-oth,	.	.	.	.	4f/	.
.	.	.	.	.	.	4g/	.
=28	=28	=28	=28	=28	=28	=28	=28
2r	.	0.A	.	2D/	.	2.a/	.
2D\	sa-	.	.	2F/	.	.	.
.	.	.	.	.	.	4b\	.
2C/	.	.	.	2E/	-ba-	2cc\	.
1D	.	.	.	2D/	.	2.f/	.
.	.	.	.	1F	-oth,	.	.
.	.	.	.	.	.	4g/	.
4C/	.	.	.	.	.	[2a/	.
4BB/	.	.	.	.	.	.	.
=29	=29	=29	=29	=29	=29	=29	=29
2.AA/	.	[0.c	.	2r	.	2a/]	.
.	.	.	.	2E/	sa-	2g/	.
4BB/	.	.	.	.	.	.	.
2C/	.	.	.	2A/	.	1e	.
2.C/	.	.	.	2G/	.	.	.
.	.	.	.	1E	.	1g	.
4BB/	.	.	.	.	.	.	.
4AA/	.	.	.	.	.	.	.
4GG/	.	.	.	.	.	.	.
=30	=30	=30	=30	=30	=30	=30	=30
2FF/	.	0.c]	.	1F	.	1.a	.
1F	.	.	.	.	.	.	.
.	.	.	.	2.c\	.	.	.
4E\	.	.	.	.	.	2g/	.
4D\	.	.	.	4d\	.	.	.
2.C/	.	.	.	1e	.	1cc	.
4D\	.	.	.	.	.	.	.
=31	=31	=31	=31	=31	=31	=31	=31
2.E\	.	0.G	-ba-	1e	-ba-	1.b	.
4D\	.	.	.	.	.	.	.
2BB/	.	.	.	2d\	.	.	.
1C	-ba-	.	.	1e	.	2g/	.
.	.	.	.	.	.	[1g	-ba-
4BB/	.	.	.	4d\	.	.	.
4AA/	.	.	.	4c\	.	.	.
=32	=32	=32	=32	=32	=32	=32	=32
0.GGl	-oth.	0.Gl	-oth.	0.Bl	-oth.	2g/]	.
.	.	.	.	.	.	4f/	.
.	.	.	.	.	.	4e/	.
.	.	.	.	.	.	0dl	-oth.
!!LO:LB:i:g=z
=33||	=33||	=33||	=33||	=33||	=33||	=33||	=33||
*>B	*>B	*>B	*>B	*>B	*>B	*>B	*>B
*clefF4	*	*clefGv2	*	*clefGv2	*	*clefG2	*
*k[]	*	*k[]	*	*k[]	*	*k[]	*
*M3/1	*	*M3/1	*	*M3/1	*	*M3/1	*
*met(O)	*	*met(O)	*	*met(O)	*	*met(O)	*
!!section: Pleni sunt celi
!!!OMD: Pleni sunt celi
0.r	.	0.r	.	1.D	Ple-	0.r	.
.	.	.	.	2E/	.	.	.
.	.	.	.	2F/	.	.	.
.	.	.	.	4E/	.	.	.
.	.	.	.	4F/	.	.	.
=34	=34	=34	=34	=34	=34	=34	=34
1.GG	Ple-	0.r	.	1.G	.	0.r	.
2AA/	.	.	.	2F/	.	.	.
2BB/	.	.	.	1G	.	.	.
4AA/	.	.	.	.	.	.	.
4BB/	.	.	.	.	.	.	.
=35	=35	=35	=35	=35	=35	=35	=35
2C/	.	0.r	.	1A	.	0.r	.
2AA/	.	.	.	.	.	.	.
2D\	.	.	.	2F/	.	.	.
1D	.	.	.	2D/	.	.	.
.	.	.	.	1E	.	.	.
2C#i/	.	.	.	.	.	.	.
=36	=36	=36	=36	=36	=36	=36	=36
1D	-ni	0.r	.	2D/	-ni	0.r	.
.	.	.	.	2F/	sunt	.	.
2E\	sunt	.	.	2G/	.	.	.
1F	ce-	.	.	1A	ce-	.	.
4E\	.	.	.	2B\	.	.	.
4D\	.	.	.	.	.	.	.
=37	=37	=37	=37	=37	=37	=37	=37
2C/	.	0.r	.	2c\	.	0.r	.
2D\	.	.	.	1B	.	.	.
1AA	.	.	.	.	.	.	.
.	.	.	.	1A	.	.	.
1BB	.	.	.	.	.	.	.
.	.	.	.	2G#i/	.	.	.
=38	=38	=38	=38	=38	=38	=38	=38
2.AA/	-li,	0.r	.	1A	-li,	0.r	.
4BB/	.	.	.	.	.	.	.
2C/	.	.	.	1r	.	.	.
2D\	ce-	.	.	.	.	.	.
2C/	.	.	.	1A	sunt	.	.
[2F\	.	.	.	.	.	.	.
=39	=39	=39	=39	=39	=39	=39	=39
2F\]	.	0.r	.	2.A/	ce-	0.r	.
2D\	.	.	.	.	.	.	.
.	.	.	.	4B\	.	.	.
2E\	.	.	.	2c\	.	.	.
2D\	.	.	.	1d	.	.	.
2F\	.	.	.	.	.	.	.
2G\	.	.	.	2B\	.	.	.
=40	=40	=40	=40	=40	=40	=40	=40
1A	.	0.r	.	2A/	.	0.r	.
.	.	.	.	2.c\	.	.	.
2D\	.	.	.	.	.	.	.
.	.	.	.	4B\	.	.	.
1G	.	.	.	2G/	.	.	.
.	.	.	.	1A	.	.	.
2F#i\	.	.	.	.	.	.	.
=41	=41	=41	=41	=41	=41	=41	=41
0G	-li	0.r	.	0.G	-li	0.r	.
1r	.	.	.	.	.	.	.
=42	=42	=42	=42	=42	=42	=42	=42
1C	et	0.r	.	0.r	.	1e	et
2D\	ter-	.	.	.	.	2f/	ter-
2BB/	.	.	.	.	.	1g	.
2C/	.	.	.	.	.	.	.
2AA/	.	.	.	.	.	2c/	.
=43	=43	=43	=43	=43	=43	=43	=43
1GG	.	0.r	.	0.r	.	2d/	.
.	.	.	.	.	.	1e	.
1C	.	.	.	.	.	.	.
.	.	.	.	.	.	2c/	.
1BB	.	.	.	.	.	1d	.
=44	=44	=44	=44	=44	=44	=44	=44
1C	.	0.r	.	1c	et	2c/	.
.	.	.	.	.	.	2e/	.
2D\	.	.	.	2A/	ter-	2f/	.
2.E\	.	.	.	2G/	.	2.g/	.
.	.	.	.	2c\	.	.	.
4C/	.	.	.	.	.	4c/	.
2BB/	.	.	.	2d\	.	[2g/	.
=45	=45	=45	=45	=45	=45	=45	=45
1C	-ra,	0.r	.	2c\	.	2g/]	.
.	.	.	.	1e	.	2a/	.
1r	.	.	.	.	.	2b\	.
.	.	.	.	2c\	.	1cc	.
1GG	glo-	.	.	1d	.	.	.
.	.	.	.	.	.	2b\	.
=46	=46	=46	=46	=46	=46	=46	=46
2.C/	.	0.r	.	1.c	-ra,	1cc	-ra,
4BB/	.	.	.	.	.	.	.
2AA/	.	.	.	.	.	1r	.
2GG/	.	.	.	2B\	.	.	.
1FF	-ri-	.	.	1A	.	1cc	glo-
=47	=47	=47	=47	=47	=47	=47	=47
1GG	-a	0.r	.	1G	glo-	1b	.
0D	tu-	.	.	0F	.	1.a	.
.	.	.	.	.	.	2g/	.
=48	=48	=48	=48	=48	=48	=48	=48
1GGl	-a.	0.r	.	1G	.	1b	.
1r	.	.	.	0c	.	2g/	.
.	.	.	.	.	.	2.a/	.
1r	.	.	.	.	.	.	.
.	.	.	.	.	.	4g/	.
.	.	.	.	.	.	2a/	.
=49	=49	=49	=49	=49	=49	=49	=49
0.r	.	0.r	.	2B\	.	2g/	.
.	.	.	.	2A/	.	2f/	.
.	.	.	.	2d\	.	1d	.
.	.	.	.	1d	-ri-	.	.
.	.	.	.	.	.	1e	-ri-
.	.	.	.	2c#i\	.	.	.
=50	=50	=50	=50	=50	=50	=50	=50
0.r	.	0.r	.	2d\	-a	1d	-a
.	.	.	.	2G/	tu-	.	.
.	.	.	.	2A/	.	2r	.
.	.	.	.	2B\	.	2d/	tu-
.	.	.	.	2c\	.	2e/	.
.	.	.	.	2d\	.	2f/	.
=51	=51	=51	=51	=51	=51	=51	=51
0.r	.	0.r	.	2B\	.	2.g/	.
.	.	.	.	1.e	.	.	.
.	.	.	.	.	.	4a/	.
.	.	.	.	.	.	2b\	.
.	.	.	.	.	.	2cc\	.
.	.	.	.	2d\	.	2b\	.
.	.	.	.	2c\	.	[2cc\	.
=52	=52	=52	=52	=52	=52	=52	=52
0.r	.	0.r	.	2.e\	.	4cc\]	.
.	.	.	.	.	.	4b\	.
.	.	.	.	.	.	2g/	-a,
.	.	.	.	4d\	.	.	.
.	.	.	.	2B\	-a,	2r	.
.	.	.	.	2r	.	2.cc\	glo-
.	.	.	.	1e	glo-	.	.
.	.	.	.	.	.	4b\	.
.	.	.	.	.	.	[2b\	.
=53	=53	=53	=53	=53	=53	=53	=53
0.r	.	0.r	.	2d\	-ri-	2b\]	.
.	.	.	.	2c\	-a	2a/	-ri-
.	.	.	.	1e	tu-	2g/	-a
.	.	.	.	.	.	2cc\	tu-
.	.	.	.	2d\	.	2b\	.
.	.	.	.	2B\	.	2g/	.
=54	=54	=54	=54	=54	=54	=54	=54
0.r	.	0.r	.	2c\	.	2a/	.
.	.	.	.	2d\	.	1d	.
.	.	.	.	1G	.	.	.
.	.	.	.	.	.	1g	.
.	.	.	.	1A	.	.	.
.	.	.	.	.	.	2f#i/	.
=55	=55	=55	=55	=55	=55	=55	=55
0.r	.	0.r	.	0.Gl	-a.	0.gl	-a.
!!LO:LB:i:g=z
=56||	=56||	=56||	=56||	=56||	=56||	=56||	=56||
*>C	*>C	*>C	*>C	*>C	*>C	*>C	*>C
*clefF4	*	*clefGv2	*	*clefGv2	*	*clefG2	*
*k[]	*	*k[]	*	*k[]	*	*k[]	*
*M2/1	*	*M2/1	*	*M2/1	*	*M2/1	*
*met(C|)	*	*met(C|)	*	*met(C|)	*	*met(C|)	*
!!section: Osanna
!!!OMD: Osanna
[0GG	O-	[0G	O-	[0d	O-	[0g	O-
=57	=57	=57	=57	=57	=57	=57	=57
1GG]	.	0G]	.	1d]	.	0g]	.
[1C	.	.	.	[1e	.	.	.
=58	=58	=58	=58	=58	=58	=58	=58
1C]	.	1r	.	1e]	.	1a	.
1BB	.	1G	.	1d	.	1b	.
=59	=59	=59	=59	=59	=59	=59	=59
1AA	-san-	0A	-san-	1e	-san-	0cc	-san-
1FF	.	.	.	1f	.	.	.
=60	=60	=60	=60	=60	=60	=60	=60
0GG	-na,	0G	.	1.d	.	1.b	.
.	.	.	.	2B\	.	2g/	.
=61	=61	=61	=61	=61	=61	=61	=61
0r	.	1F	.	1c	.	1a	-na,
.	.	[1G	.	1B	.	1g	.
=62	=62	=62	=62	=62	=62	=62	=62
0GG	o-	2G/]	.	1.d	.	1r	.
.	.	2E/	.	.	.	.	.
.	.	1D	-na	.	.	1g	o-
.	.	.	.	2c\	.	.	.
=63	=63	=63	=63	=63	=63	=63	=63
1D	-san-	1r	.	0A	-na,	1f	-san-
1F	.	1D	o-	.	.	1d	.
=64	=64	=64	=64	=64	=64	=64	=64
1E	.	1G	.	0r	.	0e	.
1C	.	1A	.	.	.	.	.
=65	=65	=65	=65	=65	=65	=65	=65
1.D	.	0B	.	1F	o-	0d	-na,
.	.	.	.	1G	.	.	.
2C/	.	.	.	.	.	.	.
=66	=66	=66	=66	=66	=66	=66	=66
0AA	.	0c	-san-	0A	-san-	1r	.
.	.	.	.	.	.	1e	o-
=67	=67	=67	=67	=67	=67	=67	=67
1.D	.	1A	.	1.F	.	1f	-san-
.	.	1F	.	.	.	[1d	.
2C/	.	.	.	2E/	.	.	.
=68	=68	=68	=68	=68	=68	=68	=68
1BB	.	1G	.	1D	.	1d]	.
1AA	.	1A	.	[1E	.	[1c	.
=69	=69	=69	=69	=69	=69	=69	=69
0C	.	1G	.	1E]	.	2c/]	.
.	.	.	.	.	.	2d/	.
.	.	[1c	.	1G	.	1e	.
=70	=70	=70	=70	=70	=70	=70	=70
0D	.	1c]	.	2F/	.	0f	.
.	.	.	.	1F	.	.	.
.	.	1B	.	.	.	.	.
.	.	.	.	2E/	.	.	.
=71	=71	=71	=71	=71	=71	=71	=71
0C	-na	0c	-na	0G	-na	0e	-na
=72	=72	=72	=72	=72	=72	=72	=72
0F	.	1d	in	0r	.	1a	in
.	.	1c	ex-	.	.	[1a	ex-
=73	=73	=73	=73	=73	=73	=73	=73
0G	.	0B	-cel-	0r	.	1a]	.
.	.	.	.	.	.	1g	.
=74	=74	=74	=74	=74	=74	=74	=74
1r	.	0A	-sis,	[0F	in	0a	-cel-
[1D	in	.	.	.	.	.	.
=75	=75	=75	=75	=75	=75	=75	=75
1D]	.	1r	.	1F]	.	1b	.
1C	ex-	[1A	in	1E	ex-	[1cc	.
=76	=76	=76	=76	=76	=76	=76	=76
1F	-cel-	1A]	.	1A	-cel-	1cc]	.
1G	.	1B	ex-	1G	.	1b	.
=77	=77	=77	=77	=77	=77	=77	=77
1E	.	0c	-cel-	1C	.	1g	.
[1F	.	.	.	1c	.	[1a	.
=78	=78	=78	=78	=78	=78	=78	=78
1F]	.	1B	.	1d	.	2a/]	.
.	.	.	.	.	.	2g/	.
1G	.	1G	.	1B	.	[1g	.
=79	=79	=79	=79	=79	=79	=79	=79
0D	.	0A	.	1A	-sis,	1g]	.
.	.	.	.	2r	.	1f#i	.
.	.	.	.	[2d\	o-	.	.
=80	=80	=80	=80	=80	=80	=80	=80
1GG	-sis,	1.G	-sis,	2d\]	.	0g	-sis,
.	.	.	.	2e\	.	.	.
2BB/	.	.	.	2d\	-san-	.	.
2C/	.	2E/	.	[2e\	.	.	.
=81	=81	=81	=81	=81	=81	=81	=81
1AA	.	1F	.	2e\]	.	1r	.
.	.	.	.	2c\	.	.	.
1GG	.	1G	o-	1B	.	2.d/	o-
.	.	.	.	.	.	4e/	.
=82	=82	=82	=82	=82	=82	=82	=82
2r	.	1D	-san-	2A/	.	2f/	.
1GG	o-	.	.	2G/	.	2.g/	-san-
.	.	1G	.	1D	.	.	.
.	.	.	.	.	.	4e/	.
2BB/	.	.	.	.	.	2d/	.
=83	=83	=83	=83	=83	=83	=83	=83
2C/	-san-	2A/	.	2E/	.	2c/	.
1D	.	1B	.	2.F/	.	1f	.
.	.	.	.	4G/	.	.	.
2C/	.	2c\	.	[2A/	.	[2e/	.
=84	=84	=84	=84	=84	=84	=84	=84
1D	.	2A/	.	2A/]	.	2e/]	.
.	.	2F/	.	2B\	.	1d	.
1E	.	1G	.	2G/	.	.	.
.	.	.	.	2E/	.	2c#i/	.
=85	=85	=85	=85	=85	=85	=85	=85
1D	-na	1A	-na	1F	-na	1d	-na
2BB/	in	2G/	in	2D/	in	1r	.
2C/	ex-	[2c\	.	2E/	ex-	.	.
=86	=86	=86	=86	=86	=86	=86	=86
1D	-cel-	2c\]	.	1F	-cel-	1f	in
.	.	2B\	.	.	.	.	.
2C/	.	1c	ex-	2G/	.	1e	ex-
[2AA/	.	.	.	[2A/	.	.	.
=87	=87	=87	=87	=87	=87	=87	=87
2AA/]	.	1d	-cel-	2A/]	.	2f/	-cel-
2BB/	.	.	.	2G/	.	1g	.
1C	.	2c\	.	1E	.	.	.
.	.	2A/	.	.	.	2e/	.
=88	=88	=88	=88	=88	=88	=88	=88
2D\	.	2B\	.	2F/	.	2d/	.
2C/	.	1c	.	2E/	.	2e/	.
2AA/	.	.	.	2C/	.	1f	.
2BB/	.	2B\	.	2D/	.	.	.
=89	=89	=89	=89	=89	=89	=89	=89
1C	.	2G/	.	1E	.	2e/	.
.	.	1A	.	.	.	2c/	.
2BB/	.	.	.	2D/	.	2d/	.
2GG/	.	[2G/	.	2BB/	.	[2e/	.
=90	=90	=90	=90	=90	=90	=90	=90
1AA	-sis,	2G/]	.	1C	.	2e/]	.
.	.	2F/	.	.	.	2c/	.
2.GG/	in	1G	-sis,	1D	.	2.B/	.
4AA/	.	.	.	.	.	4c/	.
=91	=91	=91	=91	=91	=91	=91	=91
2BB/	.	2D/	in	2.G/	.	2d/	-sis,
2C/	ex-	2E/	ex-	.	.	2G/	.
.	.	.	.	4A/	.	.	.
2BB/	-cel-	2F/	-cel-	1B	.	2r	.
[2GG/	.	[2G/	.	.	.	2d/	in
=92	=92	=92	=92	=92	=92	=92	=92
2GG/]	.	2G/]	.	2G/	.	2e/	.
2FF/	.	2D/	.	2A/	.	1d	.
1GG	.	2G/	.	2B\	.	.	.
.	.	2B\	.	2G/	.	2g/	ex-
=93	=93	=93	=93	=93	=93	=93	=93
0D	.	0A	.	1D	.	2a/	-cel-
.	.	.	.	.	.	1f#i	.
.	.	.	.	1d	-sis,	.	.
.	.	.	.	.	.	4e/	.
.	.	.	.	.	.	4f#i/	.
=94	=94	=94	=94	=94	=94	=94	=94
[0GGl	-sis.	[0Gl	-sis.	1r	.	[0gl	-sis.
.	.	.	.	1d	ex-	.	.
=95	=95	=95	=95	=95	=95	=95	=95
0GG_	.	0G_	.	1.B	-cel-	0g_	.
.	.	.	.	2c\	.	.	.
=96	=96	=96	=96	=96	=96	=96	=96
0GG]	.	0G]	.	0dl	-sis.	0g]	.
!!LO:LB:i:g=z
=97||	=97||	=97||	=97||	=97||	=97||	=97||	=97||
*>D	*>D	*>D	*>D	*>D	*>D	*>D	*>D
*clefF4	*	*clefGv2	*	*clefGv2	*	*clefG2	*
*k[]	*	*k[]	*	*k[]	*	*k[]	*
*M2/1	*	*M2/1	*	*M2/1	*	*M2/1	*
*met(C|)	*	*met(C|)	*	*met(C|)	*	*met(C|)	*
!!section: Benedictus
!!!OMD: Benedictus
0r	.	0r	.	[0c	Be-	[0g	Be-
=98	=98	=98	=98	=98	=98	=98	=98
0r	.	0r	.	0c_	.	1g]	.
.	.	.	.	.	.	[1a	.
=99	=99	=99	=99	=99	=99	=99	=99
0r	.	0r	.	0c]	.	2a/]	.
.	.	.	.	.	.	4g/	.
.	.	.	.	.	.	4f/	.
.	.	.	.	.	.	[1e	.
=100	=100	=100	=100	=100	=100	=100	=100
0r	.	0r	.	0A	-ne-	1e]	.
.	.	.	.	.	.	1f	-ne-
=101	=101	=101	=101	=101	=101	=101	=101
0r	.	0r	.	1B	-dic-	0g	-dic-
.	.	.	.	[1c	.	.	.
=102	=102	=102	=102	=102	=102	=102	=102
0r	.	0r	.	2c\]	.	1c	.
.	.	.	.	4B\	.	.	.
.	.	.	.	4A/	.	.	.
.	.	.	.	1G	-tus,	1d	.
=103	=103	=103	=103	=103	=103	=103	=103
0r	.	0r	.	2r	.	1.e	.
.	.	.	.	1G	be-	.	.
.	.	.	.	4F/	.	4d/	.
.	.	.	.	4E/	.	4c/	.
=104	=104	=104	=104	=104	=104	=104	=104
0r	.	0r	.	1D	.	1B	.
.	.	.	.	2r	.	2c/	.
.	.	.	.	2C/	.	2e/	.
=105	=105	=105	=105	=105	=105	=105	=105
0r	.	0r	.	2F/	.	1d	-tus,
.	.	.	.	2G/	.	.	.
.	.	.	.	1A	.	2r	.
.	.	.	.	.	.	[2c/	be-
=106	=106	=106	=106	=106	=106	=106	=106
0r	.	0r	.	1A	-ne	2c/]	.
.	.	.	.	.	.	2f/	.
.	.	.	.	2G/	dic-	2g/	.
.	.	.	.	2F/	.	[2a/	.
=107	=107	=107	=107	=107	=107	=107	=107
0r	.	0r	.	2A/	.	4a/]	.
.	.	.	.	.	.	4g/	.
.	.	.	.	2B\	.	1g	.
.	.	.	.	1c	.	.	.
.	.	.	.	.	.	2e/	-ne
=108	=108	=108	=108	=108	=108	=108	=108
0r	.	0r	.	2d\	.	2f/	dic-
.	.	.	.	1e	.	2e/	.
.	.	.	.	.	.	1g	.
.	.	.	.	[2c\	.	.	.
=109	=109	=109	=109	=109	=109	=109	=109
0r	.	0r	.	2c\]	.	1c	.
.	.	.	.	2C/	.	.	.
.	.	.	.	2D/	.	2B/	.
.	.	.	.	2C/	.	[2c/	.
=110	=110	=110	=110	=110	=110	=110	=110
0r	.	0r	.	2c\	.	2c/]	.
.	.	.	.	1c	.	2e/	.
.	.	.	.	.	.	1d	.
.	.	.	.	2B\	.	.	.
=111	=111	=111	=111	=111	=111	=111	=111
0r	.	0r	.	0cl	-tus.	0cl	-tus.
=112	=112	=112	=112	=112	=112	=112	=112
0r	.	0r	.	0r	.	1.e	Qui
.	.	.	.	.	.	2f/	.
=113	=113	=113	=113	=113	=113	=113	=113
0r	.	0r	.	1r	.	2g/	ve-
.	.	.	.	.	.	4f/	.
.	.	.	.	.	.	4g/	.
.	.	.	.	[1A	Qui	1a	.
=114	=114	=114	=114	=114	=114	=114	=114
0r	.	0r	.	2A/]	.	2f/	.
.	.	.	.	2B\	.	1g	.
.	.	.	.	2c\	ve-	.	.
.	.	.	.	4B\	.	2e/	.
.	.	.	.	4c\	.	.	.
=115	=115	=115	=115	=115	=115	=115	=115
0r	.	0r	.	1d	.	1d	-nit,
.	.	.	.	2B\	.	2r	.
.	.	.	.	[2c\	.	2g/	qui-
=116	=116	=116	=116	=116	=116	=116	=116
0r	.	0r	.	2c\]	.	2a/	-ve-
.	.	.	.	2A/	.	2cc\	.
.	.	.	.	2.G/	.	2.b\	.
.	.	.	.	4E/	.	4g/	.
=117	=117	=117	=117	=117	=117	=117	=117
0r	.	0r	.	2F/	.	2a/	.
.	.	.	.	2E/	.	1g	.
.	.	.	.	2C/	-nit,	.	.
.	.	.	.	2c\	ve-	2e/	.
=118	=118	=118	=118	=118	=118	=118	=118
0r	.	0r	.	2d\	.	2f/	.
.	.	.	.	1e	.	2e/	.
.	.	.	.	.	.	1c	-nit,
.	.	.	.	2c\	.	.	.
=119	=119	=119	=119	=119	=119	=119	=119
0r	.	0r	.	2B\	.	2d/	ve-
.	.	.	.	2G/	.	1e	.
.	.	.	.	1A	.	.	.
.	.	.	.	.	.	2c/	.
=120	=120	=120	=120	=120	=120	=120	=120
0r	.	0r	.	2G/	.	2B/	.
.	.	.	.	2E/	.	1c	.
.	.	.	.	1F	.	.	.
.	.	.	.	.	.	2A/	.
=121	=121	=121	=121	=121	=121	=121	=121
0r	.	0r	.	1E	.	2G/	.
.	.	.	.	.	.	1c	.
.	.	.	.	1A	.	.	.
.	.	.	.	.	.	2A/	.
=122	=122	=122	=122	=122	=122	=122	=122
0r	.	0r	.	2G/	.	2B/	.
.	.	.	.	2E/	.	2c/	.
.	.	.	.	2F/	.	1d	.
.	.	.	.	[2G/	.	.	.
=123	=123	=123	=123	=123	=123	=123	=123
0r	.	0r	.	2G/]	.	1G	-nit,
.	.	.	.	1C	-nit,	.	.
.	.	.	.	.	.	2.g/	ve-
.	.	.	.	[2c\	ve-	.	.
.	.	.	.	.	.	4a/	.
=124	=124	=124	=124	=124	=124	=124	=124
0r	.	0r	.	4c\]	.	2b\	.
.	.	.	.	4B\	.	.	.
.	.	.	.	2c\	.	2a/	.
.	.	.	.	2e\	.	2g/	.
.	.	.	.	2c\	.	[2cc\	.
=125	=125	=125	=125	=125	=125	=125	=125
0r	.	0r	.	1d	.	2cc\]	.
.	.	.	.	.	.	2b\	.
.	.	.	.	[1c	-nit	1cc	-nit
=126	=126	=126	=126	=126	=126	=126	=126
0r	.	0r	.	1c]	.	2r	.
.	.	.	.	.	.	1a	in
.	.	.	.	1r	.	.	.
.	.	.	.	.	.	2g/	.
=127	=127	=127	=127	=127	=127	=127	=127
0r	.	0r	.	1e	in	1e	no-
.	.	.	.	2d\	.	2f/	.
.	.	.	.	[2B\	no-	[2g/	.
=128	=128	=128	=128	=128	=128	=128	=128
0r	.	0r	.	2B\]	.	2g/]	.
.	.	.	.	2c\	-mi-	2f/	-mi-
.	.	.	.	1d	-ne	1d	-ne
=129	=129	=129	=129	=129	=129	=129	=129
0r	.	0r	.	1G	do-	2.g/	do-
.	.	.	.	.	.	4f/	.
.	.	.	.	2.d\	.	2f/	.
.	.	.	.	.	.	[2e/	.
.	.	.	.	4B\	.	.	.
=130	=130	=130	=130	=130	=130	=130	=130
0r	.	0r	.	2c\	.	2e/]	.
.	.	.	.	2d\	.	1d	.
.	.	.	.	2B-\	.	.	.
.	.	.	.	4A/	.	[2c/	.
.	.	.	.	4G/	.	.	.
=131	=131	=131	=131	=131	=131	=131	=131
0r	.	0r	.	2F/	.	2c/]	.
.	.	.	.	1G	.	2B/	.
.	.	.	.	.	.	1A	-mi-
.	.	.	.	2F#i/	-mi-	.	.
=132	=132	=132	=132	=132	=132	=132	=132
0r	.	0r	.	1.G	-ni,	[0G	-ni,
.	.	.	.	[2B\	do-	.	.
=133	=133	=133	=133	=133	=133	=133	=133
0r	.	0r	.	4B\]	.	1G]	.
.	.	.	.	4c\	.	.	.
.	.	.	.	2d\	.	.	.
.	.	.	.	2B\	.	1r	.
.	.	.	.	[2e\	.	.	.
=134	=134	=134	=134	=134	=134	=134	=134
0r	.	0r	.	2e\]	.	1.g	do-
.	.	.	.	4d\	.	.	.
.	.	.	.	4c\	.	.	.
.	.	.	.	2B\	.	.	.
.	.	.	.	2c\	.	2e/	.
=135	=135	=135	=135	=135	=135	=135	=135
0r	.	0r	.	2d\	.	2.f/	.
.	.	.	.	2B\	-mi-	.	.
.	.	.	.	.	.	4g/	.
.	.	.	.	1A	-ni,	2a/	.
.	.	.	.	.	.	2f/	-mi-
=136	=136	=136	=136	=136	=136	=136	=136
0r	.	0r	.	2r	.	1e	-ni,
.	.	.	.	1e	do-	.	.
.	.	.	.	.	.	2r	.
.	.	.	.	2c\	.	[2cc\	do-
=137	=137	=137	=137	=137	=137	=137	=137
0r	.	0r	.	1d	.	2cc\]	.
.	.	.	.	.	.	2b\	.
.	.	.	.	2c\	.	1cc	.
.	.	.	.	[2e\	.	.	.
=138	=138	=138	=138	=138	=138	=138	=138
0r	.	0r	.	2e\]	.	1b	.
.	.	.	.	2d\	.	.	.
.	.	.	.	2c\	.	2a/	.
.	.	.	.	2B\	.	[2g/	.
=139	=139	=139	=139	=139	=139	=139	=139
0r	.	0r	.	1e	.	2g/]	.
.	.	.	.	.	.	2cc\	.
.	.	.	.	1d	.	2b\	.
.	.	.	.	.	.	[2a/	.
=140	=140	=140	=140	=140	=140	=140	=140
0r	.	0r	.	2c\	.	2a/]	.
.	.	.	.	2B\	.	1g	.
.	.	.	.	1e	.	.	.
.	.	.	.	.	.	[2cc\	.
=141	=141	=141	=141	=141	=141	=141	=141
0r	.	0r	.	2c\	.	2cc\]	.
.	.	.	.	2d\	.	2b\	.
.	.	.	.	2c\	.	1cc	.
.	.	.	.	[2e\	.	.	.
=142	=142	=142	=142	=142	=142	=142	=142
0r	.	0r	.	4e\]	.	2b\	.
.	.	.	.	4d\	.	.	.
.	.	.	.	2c\	.	2.a/	.
.	.	.	.	2B\	.	.	.
.	.	.	.	.	.	4g/	.
.	.	.	.	2G/	.	[2g/	.
=143	=143	=143	=143	=143	=143	=143	=143
0r	.	0r	.	1A	.	2g/]	.
.	.	.	.	.	.	2f#i/	.
.	.	.	.	2.G/	.	2.g/	.
.	.	.	.	4A/	.	4fni/	.
=144	=144	=144	=144	=144	=144	=144	=144
0r	.	0r	.	2B\	.	2g/	.
.	.	.	.	1c	.	2e/	.
.	.	.	.	.	.	1d	-mi-
.	.	.	.	2B\	-mi-	.	.
=145	=145	=145	=145	=145	=145	=145	=145
0r	.	0r	.	0cl	-ni.	0cl	-ni.
!!LO:TX:i:Z=12:rj:t=Osanna ut supra
=||	=||	=||	=||	=||	=||	=||	=||
*-	*-	*-	*-	*-	*-	*-	*-
!!!RDF**kern: l=long note in original notation
!!!RDF**kern: i=editorial accidental
!!!ENC:	Will Watson 12/09/2012
!!!END:	2015/12/06/
!!!EED:	Jesse Rodin
!!!EEV:	2015/12/07/
!!!ONB:	Translated from MusicXML and edited on 2015/12/07/ by Craig Sapp
!!muse2ps: T^@{OPR}^u^@{ONM}{. }@{OTL}^C^@{COM}^i2I150v85,85,85,150Q16
